X:130
T:Reel de Minuit
M:2/4
L:1/16
Z:abc by Bruce Osborne - bosborne@kos.net
K:D
AG|F2D2 DFAF|G2E2 E3F|GFGA BGBd|ceAc dBAG|!
F2D2 DFAF|G2E2 E3F|GFGA BGEG|F2D2 D2:|!
|:de|f2df edce|dfec dcBA|GBef gfgf|edcB Acde|!
f2df edce|dfed dcBA|GABc dBAG|F2D2 D2:|!
